icons/eyeglasses.svg

<svg width="48" height="48" viewBox="0 0 48 48" fill="none" xmlns="http://www.w3.org/2000/svg">
<path d="M38.3916 31C35.795 36.3285 30.3263 40 24 40C17.6738 40 12.2051 36.3285 9.60851 31H7.41187C10.1429 37.4639 16.5417 42 24 42C31.4584 42 37.8572 37.4639 40.5882 31H38.3916Z" fill="black"/>
<path d="M12.381 13C15.2972 9.92077 19.4243 8 24 8C28.5758 8 32.7029 9.92077 35.619 13H38.249C34.9569 8.74194 29.7987 6 24 6C18.2014 6 13.0431 8.74194 9.75114 13H12.381Z" fill="black"/>
<path fill-rule="evenodd" clip-rule="evenodd" d="M13 21.5C13 20.1193 14.1193 19 15.5 19C16.8807 19 18 20.1193 18 21.5C18 22.8807 16.8807 24 15.5 24C14.1193 24 13 22.8807 13 21.5ZM15.5 21C15.2239 21 15 21.2239 15 21.5C15 21.7761 15.2239 22 15.5 22C15.7761 22 16 21.7761 16 21.5C16 21.2239 15.7761 21 15.5 21Z" fill="black"/>
<path fill-rule="evenodd" clip-rule="evenodd" d="M32.5 19C31.1193 19 30 20.1193 30 21.5C30 22.8807 31.1193 24 32.5 24C33.8807 24 35 22.8807 35 21.5C35 20.1193 33.8807 19 32.5 19ZM32 21.5C32 21.2239 32.2239 21 32.5 21C32.7761 21 33 21.2239 33 21.5C33 21.7761 32.7761 22 32.5 22C32.2239 22 32 21.7761 32 21.5Z" fill="black"/>
<path fill-rule="evenodd" clip-rule="evenodd" d="M22.6827 19.3792C22.7146 19.0447 22.7044 18.7167 22.6568 18.4H25.3432C25.2956 18.7167 25.2854 19.0447 25.3173 19.3792L25.8887 25.3792C26.0843 27.4322 27.8085 29 29.8707 29H38C40.2091 29 42 27.2091 42 25V20H43V15H29.2993C28.0757 15 26.99 15.5464 26.2595 16.4H21.7405C21.01 15.5464 19.9243 15 18.7007 15H5V20H6V25C6 27.2091 7.79086 29 10 29H18.1293C20.1915 29 21.9157 27.4322 22.1113 25.3792L22.6827 19.3792ZM10 17C8.89543 17 8 17.8954 8 19V25C8 26.1046 8.89543 27 10 27H18.1293C19.1604 27 20.0225 26.2161 20.1203 25.1896L20.6917 19.1896C20.8035 18.0154 19.8802 17 18.7007 17H10ZM27.3083 19.1896C27.1965 18.0155 28.1198 17 29.2993 17H38C39.1046 17 40 17.8954 40 19V25C40 26.1046 39.1046 27 38 27H29.8707C28.8396 27 27.9775 26.2161 27.8797 25.1896L27.3083 19.1896Z" fill="black"/>
<path d="M29.3493 33.437C29.8668 33.2441 30.1299 32.6682 29.937 32.1507C29.7441 31.6332 29.1682 31.3701 28.6507 31.563C26.5908 32.3309 25.1234 32.7086 23.7729 32.7253C22.4463 32.7417 21.145 32.4099 19.4282 31.5963C18.9292 31.3598 18.3328 31.5727 18.0963 32.0718C17.8598 32.5709 18.0727 33.1672 18.5718 33.4037C20.4618 34.2993 22.0708 34.7465 23.7976 34.7251C25.5005 34.704 27.2297 34.2271 29.3493 33.437Z" fill="black"/>
</svg>

<svg
  xmlns="http://www.w3.org/2000/svg"
  width="24"
  height="24"
  viewBox="0 0 24 24"
  fill="none"
  stroke="currentColor"
  stroke-width="2"
  stroke-linecap="round"
  stroke-linejoin="round"
>
  <path d="M38.392 31c-2.597 5.328-8.066 9-14.392 9s-11.795-3.672-14.391-9H7.412c2.73 6.464 9.13 11 16.588 11s13.857-4.536 16.588-11z" />
  <path d="M12.381 13C15.297 9.92 19.424 8 24 8s8.703 1.92 11.619 5h2.63C34.957 8.742 29.799 6 24 6S13.043 8.742 9.751 13z" />
  <path
    fill-rule="evenodd"
    d="M13 21.5a2.5 2.5 0 1 1 5 0 2.5 2.5 0 0 1-5 0m2.5-.5a.5.5 0 1 0 0 1 .5.5 0 0 0 0-1"
    clip-rule="evenodd"
  />
  <path
    fill-rule="evenodd"
    d="M32.5 19a2.5 2.5 0 1 0 0 5 2.5 2.5 0 0 0 0-5m-.5 2.5a.5.5 0 1 1 1 0 .5.5 0 0 1-1 0"
    clip-rule="evenodd"
  />
  <path
    fill-rule="evenodd"
    d="M22.683 19.38a4 4 0 0 0-.026-.98h2.686a4 4 0 0 0-.026.98l.572 6A4 4 0 0 0 29.87 29H38a4 4 0 0 0 4-4v-5h1v-5H29.3c-1.224 0-2.31.546-3.04 1.4h-4.52A3.99 3.99 0 0 0 18.7 15H5v5h1v5a4 4 0 0 0 4 4h8.13a4 4 0 0 0 3.981-3.62zM10 17a2 2 0 0 0-2 2v6a2 2 0 0 0 2 2h8.13a2 2 0 0 0 1.99-1.81l.572-6A2 2 0 0 0 18.7 17zm17.308 2.19A2 2 0 0 1 29.3 17H38a2 2 0 0 1 2 2v6a2 2 0 0 1-2 2h-8.13a2 2 0 0 1-1.99-1.81z"
    clip-rule="evenodd"
  />
  <path d="M29.35 33.437a1 1 0 1 0-.7-1.874c-2.06.768-3.527 1.146-4.877 1.162-1.327.017-2.628-.315-4.345-1.129a1 1 0 0 0-.856 1.808c1.89.895 3.499 1.342 5.226 1.321 1.703-.021 3.432-.498 5.551-1.288" />
</svg>
